X: 5516
T: Burma Road, The
R: slip jig
M: 9/8
K: Bminor
efe edB g2 e|fdB BAE FAd|efe edB g2 e|1 fdB BAF EB/c/d:|2 fdB BAF E3||
|:EGB d2 B cAF|EGB A/A/AD FGF|EGB dcBc de|1 f dB{d}B AF G2 F:|2 fgf{g} fec fga||
bge b=c'/b/a bge|ade fBd fga|bge b=c'/b/a bge|ade fBd e (3fga|
bge b=c'/b/a bge|ade fBd fgf|efg fdf edB|BAE FAd B3||
|:EGB G/G/G BFBG|FBA BDE FED|EGB G/G/G BFBG|1 FBA BGA B3:|2 FBA BGA Bcd||

